X:144
T: DER N N HAT NE HOHE MUETZE
N: E1225B
O: Europa, Mitteleuropa, Deutschland, Schlesien, Glogau
R: Ansinge -, Brauchtums - Lied, Kirchen - Fest, Sommer - Tags - Lied
M: 2/4
L: 1/8
K: F
F | cccd | cBA
A | cccd | cBA
A | cccd | c2A
A | cccd | c2A

@@@ Tune index: 4828
